App/assets/icons/timeline-arrow.svg

<svg width="32" height="32" viewBox="0 0 32 32" fill="none" xmlns="http://www.w3.org/2000/svg">
<rect x="0.5" y="0.5" width="31" height="31" stroke="black"/>
<path d="M2.63647 4.57551V9.84842H7.90938V4.57551H2.63647ZM0.878832 2.81787H9.66702V11.6061H6.15175V16.0002H18.4552V11.6061H14.9399V2.81787H23.7281V11.6061H20.2129V16.0002H28.6385C26.6941 14.0558 25.6725 13.0341 25.5627 12.9243L26.804 11.683L27.4247 12.3036L31.3793 16.2583L32 16.879L31.3793 17.4996L27.4247 21.4543L26.804 22.075L25.5627 20.8337C25.6725 20.7238 26.6941 19.6967 28.6385 17.7578H13.1823V20.3943H16.6976V29.1824H7.90938V20.3943H11.4247V17.7578H1.33514e-05V16.0002H4.39411V11.6061H0.878832V2.81787ZM21.9705 4.57551H16.6976V9.84842H21.9705V4.57551ZM9.66702 22.1519V27.4248H14.9399V22.1519H9.66702Z" fill="white"/>
</svg>

<?xml version="1.0" encoding="UTF-8"?>
<svg id="Livello_1" xmlns="http://www.w3.org/2000/svg" version="1.1" viewBox="0 0 32 32">
  <!-- Generator: Adobe Illustrator 29.5.1, SVG Export Plug-In . SVG Version: 2.1.0 Build 141)  -->
  <defs>
    <style>
      .st0 {
        fill: #fff;
      }
    </style>
  </defs>
  <path class="st0" d="M2.6,4.6v5.3h5.3v-5.3H2.6ZM.9,2.8h8.8v8.8h-3.5v4.4h12.3v-4.4h-3.5V2.8h8.8v8.8h-3.5v4.4h8.4c-1.9-1.9-3-3-3.1-3.1l1.2-1.2.6.6,4,4,.6.6-.6.6-4,4-.6.6-1.2-1.2c.1-.1,1.1-1.1,3.1-3.1h-15.5v2.6h3.5v8.8H7.9v-8.8h3.5v-2.6H0v-1.8h4.4v-4.4H.9V2.8ZM22,4.6h-5.3v5.3h5.3v-5.3ZM9.7,22.2v5.3h5.3v-5.3h-5.3Z"/>
</svg>
